assets/logos/reclame-aqui.svg

<svg width="80" height="80" viewBox="0 0 80 80" fill="none" xmlns="http://www.w3.org/2000/svg">
<path d="M24.5489 12.8715C21.6903 12.8715 18.8318 12.8876 15.9696 12.8876H15.1109C12.7359 31.0809 10.375 49.1905 8 67.3661H23.0787C23.9699 60.5787 24.8588 53.8026 25.7453 47.0377H25.9231C27.2268 53.7931 28.5304 60.558 29.8341 67.3323H45.8213C43.3129 59.2774 40.8223 51.2901 38.3299 43.253C38.5894 43.1125 38.8598 42.9936 39.1387 42.8974C42.2195 41.5656 44.8536 39.3777 46.7279 36.5935C48.7034 33.3834 49.605 29.6274 49.3021 25.8703C49.2638 23.9387 48.7738 22.043 47.8715 20.3346C46.9691 18.6263 45.6795 17.1529 44.1057 16.0323C40.8713 13.8417 37.0211 12.7428 33.1176 12.8964C30.2661 12.8715 27.4075 12.8662 24.5489 12.8715ZM29.7666 24.2366C30.3186 24.2289 30.8663 24.3357 31.3749 24.5505C31.8836 24.7652 32.3422 25.0831 32.7218 25.484C33.1014 25.885 33.3936 26.3603 33.5802 26.8799C33.7667 27.3996 33.8434 27.9523 33.8055 28.5032C33.9495 30.528 33.5331 32.5533 32.602 34.3572C32.4985 34.5326 32.3839 34.7012 32.2589 34.862C32.1967 34.9438 32.1327 35.0238 32.0651 35.1038C31.4538 35.8172 30.675 36.3677 29.7985 36.7058C28.922 37.044 27.9752 37.1594 27.0431 37.0416C27.5871 32.7892 28.1488 28.5529 28.6928 24.3343C28.8101 24.3148 28.9275 24.2988 29.0484 24.2864C29.2865 24.2544 29.5263 24.2377 29.7666 24.2366V24.2366Z" fill="#94C120"/>
<path d="M72 67.1153C70.4498 48.9397 68.8979 30.8496 67.3317 12.6527C66.9193 12.6527 66.6064 12.6528 66.3078 12.6688C61.3088 12.6688 56.2938 12.6847 51.2948 12.6527C51.1528 12.6259 51.007 12.6278 50.8657 12.6582C50.7244 12.6885 50.5907 12.7469 50.4722 12.8297C50.3538 12.9125 50.2532 13.0181 50.1761 13.1403C50.0991 13.2626 50.0472 13.399 50.0237 13.5416C49.4679 15.1487 48.9108 16.7563 48.3526 18.3646C49.8518 20.5374 50.6924 23.0965 50.7739 25.7351C51.0972 29.7469 50.1346 33.7574 48.0256 37.1854C46.0786 40.086 43.3525 42.3783 40.1609 43.7986C42.3546 50.8758 44.5501 57.9191 46.7563 65.0016C47.247 63.0621 47.8122 61.1351 48.342 59.2329H57.268V67.1207L72 67.1153ZM51.2948 48.0563C53.0939 41.5196 54.8912 35.0663 56.6742 28.6114C56.7241 28.6092 56.7739 28.6152 56.8218 28.6292C56.9534 35.0824 57.0867 41.5356 57.2022 48.0563H51.2948Z" fill="#056734"/>
</svg>

<svg xmlns="http://www.w3.org/2000/svg" width="80" height="80" fill="none" viewBox="0 0 80 80"><path fill="#94c120" d="M24.549 12.872c-2.859 0-5.717.016-8.58.016h-.858C12.736 31.08 10.375 49.19 8 67.366h15.079l2.666-20.328h.178q1.955 10.133 3.911 20.294h15.987c-2.508-8.055-4.999-16.042-7.491-24.079q.39-.211.809-.356a17.54 17.54 0 0 0 7.589-6.303 17.74 17.74 0 0 0 2.574-10.724 12.38 12.38 0 0 0-5.196-9.838 18.3 18.3 0 0 0-10.988-3.136c-2.852-.025-5.71-.03-8.57-.025m5.218 11.365a3.99 3.99 0 0 1 4.039 4.266 11.05 11.05 0 0 1-1.204 5.854 6 6 0 0 1-.537.747 5.67 5.67 0 0 1-5.022 1.938c.544-4.253 1.106-8.49 1.65-12.708a6 6 0 0 1 .355-.048q.358-.047.719-.05"/><path fill="#056734" d="M72 67.115c-1.55-18.175-3.102-36.265-4.668-54.462-.413 0-.726 0-1.024.016-5 0-10.014.016-15.013-.016a1.084 1.084 0 0 0-1.271.889l-1.671 4.823a13.7 13.7 0 0 1 2.42 7.37 18.95 18.95 0 0 1-2.747 11.45A18.56 18.56 0 0 1 40.16 43.8c2.194 7.077 4.39 14.12 6.595 21.203.491-1.94 1.056-3.867 1.586-5.77h8.926v7.889zM51.295 48.056c1.799-6.536 3.596-12.99 5.38-19.445q.075-.003.147.018c.131 6.453.265 12.907.38 19.427z"/></svg>
